packages/web-icons/svgs/minion_pro_6.svg

<svg viewBox="0 0 30 42" xmlns="http://www.w3.org/2000/svg" class="ridi_icon"><path d="M29.6.5c-2.4.4-5.7.9-8.8 1.9C7.3 6.6 0 17 0 28.2c0 7.6 4.5 13.2 11.9 13.2 8.4 0 14.8-6.9 14.8-15 0-6.8-4.2-11-10.2-11-1.2 0-2.6.5-3.8 1.1L9.3 18c3.5-8.3 9.8-11.7 13.6-13.4 2.2-.9 5-1.6 7.1-1.9L29.6.5zM13 19.5c4.6 0 6.6 3.7 6.6 8.6 0 5.1-2.2 11.1-6.6 11.1-4.1 0-5.8-5.1-5.8-10 0-3.9.8-6.6 1.3-8.4 1.3-.5 2.7-1.3 4.5-1.3z"/></svg>

<?xml version="1.0" encoding="UTF-8"?>
<svg width="30px" height="42px" viewBox="0 0 30 42" version="1.1" xmlns="http://www.w3.org/2000/svg">
  <!-- Generator: Sketch 41.2 (35397) - http://www.bohemiancoding.com/sketch -->
  <title>minion_pro_6</title>
  <desc>Created with Sketch.</desc>
  <defs></defs>
  <g id="Page-1" stroke="none" stroke-width="1" fill="none" fill-rule="evenodd">
    <g id="minion_pro_6" fill="#000000">
      <g id="레이어_1">
        <path d="M29.6,0.5 C27.2,0.9 23.9,1.4 20.8,2.4 C7.3,6.6 0,17 0,28.2 C0,35.8 4.5,41.4 11.9,41.4 C20.3,41.4 26.7,34.5 26.7,26.4 C26.7,19.6 22.5,15.4 16.5,15.4 C15.3,15.4 13.9,15.9 12.7,16.5 L9.3,18 L9.3,18 C12.8,9.7 19.1,6.3 22.9,4.6 C25.1,3.7 27.9,3 30,2.7 L29.6,0.5 L29.6,0.5 Z M13,19.5 C17.6,19.5 19.6,23.2 19.6,28.1 C19.6,33.2 17.4,39.2 13,39.2 C8.9,39.2 7.2,34.1 7.2,29.2 C7.2,25.3 8,22.6 8.5,20.8 C9.8,20.3 11.2,19.5 13,19.5 L13,19.5 Z" id="Shape"></path>
      </g>
    </g>
  </g>
</svg>
